X: 111
T: NN The piebald horse
L: 1/16
M: 2/4
K: C
A2 G E G2 A c [I:setbarnb 1]| 
G8 | 
A2 G E G2 E c | 
G8 | 
G2 G Ac4 | 
G A c2 G2 E2 | 
E D C2 E2 G2 | 
C8 |]

@@@ Tune index: 8779
